src/icons/icons_set_stations/012-station-snowshoes.svg

<svg viewBox="0 0 200 200" xmlns="http://www.w3.org/2000/svg"><path d="m170.9 154.08a4.36 4.36 0 1 1 -4.37 4.36 4.36 4.36 0 0 1 4.37-4.36m0-12.84a3.37 3.37 0 1 0 -3.37-3.38 3.39 3.39 0 0 0 3.37 3.38m-132.58 30.53a4.36 4.36 0 0 0 -4.9 7.21c.74.5 7.35 4.87 13.57 4.87h41.61a4.35 4.35 0 1 0 0-8.7h-41.6c-2.68 0-6.75-2.09-8.66-3.38m78.66 2.73a4.36 4.36 0 0 0 .83 8.64 4.87 4.87 0 0 0 .82-.07c.87-.17 8.63-1.76 13-6.16l29.41-29.44a4.35 4.35 0 0 0 -6.15-6.16l-29.43 29.44c-1.91 1.89-6.24 3.32-8.52 3.76m-39.69-127.88a15.24 15.24 0 1 0 -15.27-15.25 15.25 15.25 0 0 0 15.27 15.25m-51.4 20a2.91 2.91 0 0 1 4.07.53l4.84 6.31a9.29 9.29 0 0 1 3.55-.76h20.67l25.77-19.86c6.89-5.31 17.57-3.77 21.74 6.58l12.57 31c1.19 3 .75 6.06.51 9.14l-2.68 30.15 21 19.53-12.34 12.35-23.6-22a8.45 8.45 0 0 1 -2.7-5.51l-1.36-15.2-15.91 16.11 25.89 33.7a2.89 2.89 0 0 1 -2.29 4.68 2.88 2.88 0 0 1 -2.33-1.15l-24.42-31.85v28.62h-17.42v-34.41a8.55 8.55 0 0 1 2-5.59l3.57-4.14-26.75-34.74h-1.93a8.65 8.65 0 0 1 -7.74-12.62l-5.24-6.84a2.88 2.88 0 0 1 .52-4.06m44.91 53.73 19.67-23.27-8.22-20.25-14.9 11.5a8.75 8.75 0 0 1 -5.32 1.81h-14.41z" fill="#000100"/></svg>

<svg id="Icons" xmlns="http://www.w3.org/2000/svg" viewBox="0 0 200 200"><defs><style>.cls-1{fill:#000100;}</style></defs><title>snowshoes</title><path class="cls-1" d="M170.9,154.08a4.36,4.36,0,1,1-4.37,4.36,4.36,4.36,0,0,1,4.37-4.36m0-12.84a3.37,3.37,0,1,0-3.37-3.38,3.39,3.39,0,0,0,3.37,3.38M38.32,171.77a4.36,4.36,0,0,0-4.9,7.21c.74.5,7.35,4.87,13.57,4.87H88.6a4.35,4.35,0,1,0,0-8.7H47c-2.68,0-6.75-2.09-8.66-3.38M117,174.5a4.36,4.36,0,0,0,.83,8.64,4.87,4.87,0,0,0,.82-.07c.87-.17,8.63-1.76,13-6.16l29.41-29.44a4.35,4.35,0,0,0-6.15-6.16l-29.43,29.44c-1.91,1.89-6.24,3.32-8.52,3.76M77.27,46.63A15.24,15.24,0,1,0,62,31.38,15.25,15.25,0,0,0,77.27,46.63m-51.4,20a2.91,2.91,0,0,1,4.07.53l4.84,6.31a9.29,9.29,0,0,1,3.55-.76H59L84.77,52.85c6.89-5.31,17.57-3.77,21.74,6.58l12.57,31c1.19,3,.75,6.06.51,9.14l-2.68,30.15,21,19.53L125.57,161.6l-23.6-22a8.45,8.45,0,0,1-2.7-5.51l-1.36-15.2L82,135l25.89,33.7a2.89,2.89,0,0,1-2.29,4.68,2.88,2.88,0,0,1-2.33-1.15L78.85,140.38V169H61.43V134.59a8.55,8.55,0,0,1,2-5.59L67,124.86,40.25,90.12H38.32A8.65,8.65,0,0,1,30.58,77.5l-5.24-6.84a2.88,2.88,0,0,1,.52-4.06m44.91,53.73L90.44,97.06,82.22,76.81l-14.9,11.5A8.75,8.75,0,0,1,62,90.12H47.59Z"/></svg>
